symbols/web/group_remove/materialsymbolsrounded/group_remove_wght500_20px.svg

<svg xmlns="http://www.w3.org/2000/svg" height="20" width="20"><path d="M10.271 9.854q.667-.562 1.01-1.469.344-.906.344-1.989 0-1.104-.354-2.011-.354-.906-1-1.468 1.75-.105 2.76.958 1.011 1.063 1.011 2.521t-1.021 2.521q-1.021 1.062-2.75.937Zm4.396 7.063q.187-.188.26-.448.073-.261.073-.531v-1.75q0-.813-.438-1.719-.437-.907-1.458-1.594 2.625.375 3.927 1.208 1.302.834 1.302 2.292v1.563q0 .395-.302.687-.302.292-.698.292Zm1.375-7.771q-.354 0-.615-.261-.26-.26-.26-.614t.26-.615q.261-.26.615-.26h3.291q.355 0 .615.26.26.261.26.615t-.26.614q-.26.261-.615.261Zm-9.459.75q-1.5 0-2.5-1.011-1-1.01-1-2.489 0-1.5 1-2.5t2.5-1q1.5 0 2.5 1t1 2.5q0 1.479-1 2.489-1 1.011-2.5 1.011ZM.771 16.917q-.396 0-.688-.292-.291-.292-.291-.708v-1.584q0-.771.395-1.385.396-.615 1.042-.927 1.271-.625 2.625-.948 1.354-.323 2.729-.323 1.396 0 2.74.323 1.344.323 2.615.927.645.312 1.041.938.396.624.396 1.395v1.584q0 .416-.292.708-.291.292-.687.292Zm5.812-9q.667 0 1.094-.427.427-.428.427-1.094 0-.667-.427-1.094-.427-.427-1.094-.427-.666 0-1.093.427-.428.427-.428 1.094 0 .666.428 1.094.427.427 1.093.427Zm-4.812 7.021h9.625v-.563q0-.229-.104-.385-.104-.157-.271-.198-1.083-.5-2.198-.782-1.115-.281-2.24-.281-1.125 0-2.239.271-1.115.271-2.198.792-.167.062-.271.208-.104.146-.104.375Zm4.812-8.542Zm0 8.542Z"/></svg>

<svg xmlns="http://www.w3.org/2000/svg" height="20" width="20"><path d="M10.271 9.854Q10.938 9.292 11.281 8.385Q11.625 7.479 11.625 6.396Q11.625 5.292 11.271 4.385Q10.917 3.479 10.271 2.917Q12.021 2.812 13.031 3.875Q14.042 4.938 14.042 6.396Q14.042 7.854 13.021 8.917Q12 9.979 10.271 9.854ZM14.667 16.917Q14.854 16.729 14.927 16.469Q15 16.208 15 15.938V14.188Q15 13.375 14.562 12.469Q14.125 11.562 13.104 10.875Q15.729 11.25 17.031 12.083Q18.333 12.917 18.333 14.375V15.938Q18.333 16.333 18.031 16.625Q17.729 16.917 17.333 16.917ZM16.042 9.146Q15.688 9.146 15.427 8.885Q15.167 8.625 15.167 8.271Q15.167 7.917 15.427 7.656Q15.688 7.396 16.042 7.396H19.333Q19.688 7.396 19.948 7.656Q20.208 7.917 20.208 8.271Q20.208 8.625 19.948 8.885Q19.688 9.146 19.333 9.146ZM6.583 9.896Q5.083 9.896 4.083 8.885Q3.083 7.875 3.083 6.396Q3.083 4.896 4.083 3.896Q5.083 2.896 6.583 2.896Q8.083 2.896 9.083 3.896Q10.083 4.896 10.083 6.396Q10.083 7.875 9.083 8.885Q8.083 9.896 6.583 9.896ZM0.771 16.917Q0.375 16.917 0.083 16.625Q-0.208 16.333 -0.208 15.917V14.333Q-0.208 13.562 0.187 12.948Q0.583 12.333 1.229 12.021Q2.5 11.396 3.854 11.073Q5.208 10.75 6.583 10.75Q7.979 10.75 9.323 11.073Q10.667 11.396 11.938 12Q12.583 12.312 12.979 12.938Q13.375 13.562 13.375 14.333V15.917Q13.375 16.333 13.083 16.625Q12.792 16.917 12.396 16.917ZM6.583 7.917Q7.25 7.917 7.677 7.49Q8.104 7.062 8.104 6.396Q8.104 5.729 7.677 5.302Q7.25 4.875 6.583 4.875Q5.917 4.875 5.49 5.302Q5.062 5.729 5.062 6.396Q5.062 7.062 5.49 7.49Q5.917 7.917 6.583 7.917ZM1.771 14.938H11.396V14.375Q11.396 14.146 11.292 13.99Q11.188 13.833 11.021 13.792Q9.938 13.292 8.823 13.01Q7.708 12.729 6.583 12.729Q5.458 12.729 4.344 13Q3.229 13.271 2.146 13.792Q1.979 13.854 1.875 14Q1.771 14.146 1.771 14.375ZM6.583 6.396Q6.583 6.396 6.583 6.396Q6.583 6.396 6.583 6.396Q6.583 6.396 6.583 6.396Q6.583 6.396 6.583 6.396Q6.583 6.396 6.583 6.396Q6.583 6.396 6.583 6.396Q6.583 6.396 6.583 6.396Q6.583 6.396 6.583 6.396ZM6.583 14.938Q6.583 14.938 6.583 14.938Q6.583 14.938 6.583 14.938Q6.583 14.938 6.583 14.938Q6.583 14.938 6.583 14.938Q6.583 14.938 6.583 14.938Q6.583 14.938 6.583 14.938Q6.583 14.938 6.583 14.938Q6.583 14.938 6.583 14.938Z"/></svg>
